X: 27
T: THE MERRY GIRLS OF YORK
T: Harregate Lodge
B: "Old English Country Dances", Frank Kidson ed., William Reeves pub., London 1890
Z: 2010-9-26 John Chambers <jc:trillian.mit.edu>
M: 6/8
L: 1/8
K: Bb
B |\
FDE F2B | FDE F2B | cec BdB | cAF F2B |\
FDE F2B | FDE Ffe | dcB FBA | B3 B,2 :|
|: f |\
fdB fg_a | _a3 g2g | g=ec gab | b3 a2g |\
fbf dfd | ege cde | dcB FBA | B3 B2 :|


%%sep 1 1 500

%%sep 1 1 500

